svg/fluentui-system-icons/ic_fluent_mail_read_multiple_20_regular.svg

<svg width="20" height="20" viewBox="0 0 20 20" fill="none" xmlns="http://www.w3.org/2000/svg">
<path d="M9.26205 2.07417C9.10135 1.97528 8.89865 1.97528 8.73795 2.07417L2.71385 5.78131C2.27023 6.05431 2 6.5379 2 7.05879V12.5C2 13.8807 3.11929 15 4.5 15H13.5C14.8807 15 16 13.8807 16 12.5V7.0588C16 6.5379 15.7298 6.05431 15.2861 5.78131L9.26205 2.07417ZM3.45402 6.5L9 3.08709L14.546 6.5L9 9.91291L3.45402 6.5ZM3 7.39478L8.73795 10.9258C8.89865 11.0247 9.10135 11.0247 9.26205 10.9258L15 7.39478V12.5C15 13.3284 14.3284 14 13.5 14H4.5C3.67157 14 3 13.3284 3 12.5V7.39478ZM6.50018 17C5.68227 17 4.9561 16.6072 4.5 16H14.0002C15.657 16 17.0002 14.6568 17.0002 13V7.05876C17.0002 6.89508 16.9842 6.73362 16.9532 6.57629L17.2863 6.78127C17.7299 7.05427 18.0002 7.53787 18.0002 8.05876V13C18.0002 15.2091 16.2093 17 14.0002 17H6.50018Z" fill="#212121"/>
</svg>

<svg xmlns="http://www.w3.org/2000/svg" width="20" height="20"><path d="M9.262 2.074a.5.5 0 0 0-.524 0L2.714 5.781A1.5 1.5 0 0 0 2 7.06v5.44A2.5 2.5 0 0 0 4.5 15h9a2.5 2.5 0 0 0 2.5-2.5V7.059a1.5 1.5 0 0 0-.714-1.278L9.262 2.074ZM3.454 6.5 9 3.087 14.546 6.5 9 9.913 3.454 6.5ZM3 7.395l5.738 3.53a.5.5 0 0 0 .524 0L15 7.396V12.5a1.5 1.5 0 0 1-1.5 1.5h-9A1.5 1.5 0 0 1 3 12.5V7.395ZM6.5 17a2.496 2.496 0 0 1-2-1H14a3 3 0 0 0 3-3V7.059c0-.164-.016-.325-.047-.483l.333.205A1.5 1.5 0 0 1 18 8.06V13a4 4 0 0 1-4 4H6.5Z"/></svg>
